X: 2363
T: Polska av Snickar Erik
C: Snickar-Erik Olsson
O: Emnebo, Ovanåkers socken, Hälsingland
B: EÖ, nr 532
R: Polska
Z: Nils L
M: 3/4
L: 1/16
K: Gm
(Bd).c.B A2G2 F2E2 | (EG)FE D2C2 B,4 | d4 c4 B4 | (BA)GF (=EF)GE F2>(_E2 |
D2)F2 B2(cd) B2>(E2 | D2)F2 c2(de) c4 | {/e}d2B2 f2d2 b2>B2 | (A2c2) B8 ::
(Pg2{/a}g^f g2)a2 b2g2 | (g2f2) (f2e2) d4 | (e2>d2 e2)f2 g2e2 | e2d2 (f2e2) d4 |
(Pg2{/a}g^f g2)a2 b2g2 | g2f2 b2f2 d4 | ((3c2e2g2) ((3B2d2f2) ((3A2c2e2) | (dB)Ac B8 :|
(:musicend:)
(:music:)
